X: 25883
T: Matt Peoples'
R: reel
M: 4/4
K: Adorian
A2eA BAeA|B2gB BAGB|A2eA BAeA|1 BAGA BAAG:|2 BAGA BAAg||
ae~e2 agef|gB~B2 g2fg|ae~e2 aged|BAGA BAA2|
ae~e2 agef|gB~B2 g2fg|afge fded|BAGA BAAG||

